X:50
T:Reel Saint-Sauveur
C:Joseph Allard
M:2/4
L:1/16
Z:abc by Bruce Osborne - bosborne@kos.net
K:G
GA|BGFG Bdgd|BgdB cAAc|BGFG Bdgd|egfa gedc|!
BGFG Bdgd|BgdB cAAc|BGFG Bdgd|egfa g2:|!
|:BA|BGFG DGBG|FGAB cedc|BGFG DGBG|cedc BGGA|!
BGFG DGBG|FGAB cedc|BGFG DGBG|cedB G2:|!
